frontend/public/svg/interface/calendar.svg

<svg width="157" height="148" viewBox="0 0 157 148" fill="none" xmlns="http://www.w3.org/2000/svg">
<g clip-path="url(#clip0)">
<path d="M38.6174 11.6714C38.6174 9.22676 38.5662 6.98592 38.6303 4.74777C38.7093 1.9877 39.4323 0.780865 40.912 0.682198C42.3918 0.583532 43.2106 1.63988 43.6307 4.4324C43.9544 6.55568 44.1187 8.70155 44.4074 11.3357L111.435 10.7582C111.572 9.35087 111.67 8.0856 111.824 6.8276C111.983 5.54626 112.142 4.26041 112.406 2.99787C112.727 1.46659 113.641 0.46954 115.293 0.45526C117.088 0.439032 118.118 1.51198 118.405 3.16205C118.737 5.07307 118.849 7.02292 119.052 8.95601C119.108 9.4792 119.155 10.0036 119.236 10.8384C122.4 11.0026 125.478 11.2513 128.558 11.3065C142.155 11.5493 149.818 19.9339 152.541 31.7298C153.912 37.6686 154.21 43.9041 154.527 50.0292C155.266 64.2703 155.804 78.5256 156.261 92.7758C156.52 100.76 156.459 108.759 156.526 116.751C156.664 132.909 144.437 141.555 133.689 144.484C129.955 145.535 126.108 146.134 122.232 146.269C99.607 146.824 76.9766 147.444 54.3475 147.459C42.2785 147.468 30.2892 145.546 18.483 142.984C9.42075 141.019 2.43696 132.588 1.35467 122.835C1.02216 119.612 0.884885 116.371 0.943625 113.131C1.06273 102.003 1.40001 90.8771 1.44791 79.7492C1.50422 66.7862 1.37732 53.822 1.25369 40.859C1.22003 37.3038 0.990901 33.8485 2.27774 30.338C5.86768 20.5467 12.9039 15.137 22.9203 13.4298C26.9458 12.743 31.0523 12.5335 35.1213 12.0986C36.1777 11.9857 37.2205 11.8427 38.6174 11.6714ZM146.224 49.0038C123.214 49.7588 100.719 50.5615 78.2195 51.2177C55.6284 51.8792 33.0291 52.3998 10.2654 52.9867C10.2421 53.2612 10.1618 53.7787 10.1612 54.296C10.1396 71.5858 10.1259 88.8759 10.1198 106.166C10.1198 110.809 10.0959 115.457 10.3076 120.093C10.4437 123.359 11.6846 126.48 13.8258 128.945C15.9671 131.409 18.8811 133.069 22.0884 133.651C35.1639 135.873 48.2304 137.935 61.5784 137.574C73.7524 137.244 85.9379 137.36 98.115 137.112C107.807 136.917 117.497 136.538 127.179 136.098C131.402 135.878 135.481 134.485 138.96 132.073C143.656 128.901 146.812 124.747 146.914 118.766C146.994 114.125 147.293 109.484 147.221 104.844C146.948 87.2349 146.561 69.6274 146.222 52.0197C146.206 50.9564 146.226 49.8931 146.226 49.0038H146.224ZM9.40004 44.9297C54.9669 42.489 99.8116 40.8995 144.935 39.8219C144.676 37.5208 144.641 35.3429 144.158 33.2702C142.664 26.8848 139.868 21.4187 132.926 19.522C128.521 18.3185 124.004 18.6662 119.332 18.7733C119.228 19.8029 119.161 20.644 119.052 21.4795C118.962 22.3372 118.824 23.1894 118.64 24.032C117.982 26.7102 116.634 27.9266 114.556 27.7818C112.464 27.6377 111.268 26.2312 111.079 23.4744C110.971 21.9009 111.06 20.3138 111.06 18.8111H44.9162C44.9162 20.3462 44.9453 21.5109 44.9091 22.6728C44.908 24.2893 44.8215 25.9044 44.6502 27.5118C44.5905 28.2807 44.2425 28.9985 43.6763 29.5206C43.1102 30.0427 42.3679 30.3303 41.5988 30.3257C39.7863 30.4348 38.7571 29.2872 38.3558 27.7254C38.1206 26.4554 38.0189 25.1641 38.0522 23.8728C37.9939 22.4181 37.994 20.9608 37.9623 19.0998C33.0628 19.5146 28.5809 19.4471 24.3041 20.3571C17.1909 21.8715 11.3419 25.4107 10.0273 33.3618C9.42204 37.0365 9.59682 40.8415 9.40004 44.9297Z" fill="black"/>
<path d="M40.5799 123.022C39.6297 123.064 37.8043 123.217 35.9789 123.21C32.0219 123.201 29.6088 121.406 28.8728 117.563C27.9763 113.107 28.1739 108.501 29.4488 104.139C29.6864 103.195 30.1734 102.332 30.8583 101.643C31.5433 100.953 32.4009 100.461 33.3411 100.218C38.5107 98.7093 43.9077 98.1413 49.2771 98.5392C52.1537 98.7391 54.379 100.346 55.038 103.369C56.0361 107.939 56.3042 112.557 55.0633 117.131C54.0218 120.967 51.5582 122.863 47.5805 123.01C45.5428 123.084 43.4992 123.022 40.5799 123.022ZM45.3311 107.561H36.9252L37.2812 113.172H45.3311V107.561Z" fill="black"/>
<path d="M92.565 108.474C92.565 109.574 92.5799 110.223 92.565 110.871C92.3864 117.589 90.2309 120.202 83.6005 121.36C80.2125 121.952 76.7792 122.343 73.3505 122.633C69.6324 122.948 67.1364 121.288 66.4075 117.791C65.485 113.349 64.9445 108.842 65.9143 104.296C66.5965 101.101 68.4802 98.9735 71.6597 98.4984C75.9119 97.8337 80.1989 97.4156 84.4996 97.2475C89.3013 97.095 91.3889 99.0449 92.1378 103.765C92.4013 105.466 92.4511 107.202 92.565 108.474ZM82.928 106.437H73.6567C73.9674 108.86 74.2457 111.023 74.5331 113.264C76.6187 113.06 78.3237 112.908 80.0255 112.724C83.1066 112.391 83.4393 112.01 83.2931 108.865C83.2568 108.133 83.0762 107.409 82.9254 106.437H82.928Z" fill="black"/>
<path d="M115.165 121.917C113.124 122.01 111.08 121.998 109.04 121.88C105.343 121.49 103.188 119.533 102.966 115.908C102.703 111.925 102.752 107.928 103.111 103.953C103.5 99.8881 105.338 98.2296 109.408 97.909C113.371 97.5961 117.366 97.5072 121.342 97.5896C125.539 97.6772 129.492 100.381 129.181 105.915C129.029 108.608 128.982 111.317 128.636 113.987C127.974 119.09 125.479 121.329 120.323 121.718C118.605 121.848 116.885 121.938 115.166 122.046L115.165 121.917ZM111.181 105.439C111.31 108.201 111.408 110.296 111.504 112.315H119.039C119.233 110.227 119.392 108.442 119.582 106.364L111.181 105.439Z" fill="black"/>
<path d="M114.832 86.8755C113.007 86.9787 111.181 87.1813 109.357 87.1637C104.859 87.1209 102.516 84.9905 102.292 80.5304C102.118 77.0842 102.118 73.6321 102.292 70.1866C102.513 65.8732 104.062 64.0263 108.317 63.5803C113.018 63.0819 117.744 62.8762 122.47 62.9648C126.857 63.0538 129.194 65.5259 129.171 70.0133C129.123 73.6711 128.748 77.3172 128.05 80.9075C127.35 84.6458 125.106 86.3835 121.275 86.6535C119.139 86.8048 116.979 86.6808 114.829 86.6808L114.832 86.8755ZM110.3 78.1293H119.521C119.771 75.9002 119.992 73.9216 120.273 71.3998L110.3 70.959V78.1293Z" fill="black"/>
<path d="M63.3293 75.4114C63.5449 73.2693 63.6808 71.0026 64.0226 68.7644C64.411 66.2328 65.6701 64.2777 68.3597 63.7298C73.1173 62.7607 77.9009 61.938 82.7868 62.5203C87.0531 63.0279 89.3679 64.8488 89.9595 69.1156C90.3544 72.3093 90.3019 75.5432 89.8048 78.7226C89.3064 82.1629 86.8758 84.2297 83.4256 84.6822C79.2622 85.2274 75.0754 85.6611 70.8861 85.9194C66.8366 86.17 64.3851 84.098 63.6854 80.0585C63.4303 78.5791 63.4472 77.0511 63.3293 75.4114ZM80.8138 71.1434L71.156 70.5028C71.3068 72.9116 71.4227 74.7688 71.556 76.8947L80.8125 75.9619L80.8138 71.1434Z" fill="black"/>
</g>
<defs>
<clipPath id="clip0">
<rect width="156" height="148" fill="white" transform="translate(0.777344)"/>
</clipPath>
</defs>
</svg>

<svg xmlns="http://www.w3.org/2000/svg" width="157" height="148" fill="none" viewBox="0 0 157 148"><g fill="#000" clip-path="url(#a)"><path d="M38.617 11.671c0-2.444-.05-4.685.013-6.923.08-2.76.802-3.967 2.282-4.066s2.299.958 2.719 3.75c.323 2.124.488 4.27.776 6.904l67.028-.578c.137-1.407.235-2.672.389-3.93.159-1.282.318-2.568.582-3.83.321-1.531 1.235-2.528 2.887-2.543 1.795-.016 2.825 1.057 3.112 2.707.332 1.911.444 3.86.647 5.794.056.523.103 1.048.184 1.882 3.164.165 6.242.413 9.322.469 13.597.242 21.26 8.627 23.983 20.423 1.371 5.939 1.669 12.174 1.986 18.3.739 14.24 1.277 28.496 1.734 42.746.259 7.984.198 15.983.265 23.975.138 16.158-12.089 24.804-22.837 27.733a48.5 48.5 0 0 1-11.457 1.785c-22.625.555-45.255 1.175-67.884 1.19-12.07.009-24.059-1.913-35.865-4.475-9.062-1.965-16.046-10.396-17.128-20.149a80 80 0 0 1-.411-9.704c.119-11.128.456-22.254.504-33.382.056-12.963-.07-25.927-.194-38.89-.034-3.555-.263-7.01 1.024-10.521 3.59-9.791 10.626-15.201 20.642-16.908 4.026-.687 8.132-.896 12.201-1.331 1.057-.113 2.1-.256 3.496-.428m107.607 37.333c-23.01.755-45.505 1.558-68.004 2.214-22.592.661-45.19 1.182-67.955 1.769-.023.274-.103.792-.104 1.309q-.032 25.935-.041 51.87c0 4.643-.024 9.291.188 13.927a14.4 14.4 0 0 0 3.518 8.852 14.34 14.34 0 0 0 8.262 4.706c13.076 2.222 26.142 4.284 39.49 3.923 12.174-.33 24.36-.214 36.537-.462 9.692-.195 19.382-.574 29.064-1.014a22.75 22.75 0 0 0 11.781-4.025c4.696-3.172 7.852-7.326 7.954-13.307.08-4.641.379-9.282.307-13.922-.273-17.61-.66-35.217-.999-52.824-.016-1.064.004-2.127.004-3.016zM9.4 44.93c45.567-2.441 90.412-4.03 135.535-5.108-.259-2.301-.294-4.48-.777-6.552-1.494-6.385-4.29-11.851-11.232-13.748-4.405-1.203-8.922-.856-13.594-.749-.104 1.03-.171 1.871-.28 2.707q-.135 1.287-.412 2.552c-.658 2.678-2.006 3.895-4.084 3.75-2.092-.144-3.288-1.55-3.477-4.308-.108-1.573-.019-3.16-.019-4.663H44.916c0 1.535.03 2.7-.007 3.862a46 46 0 0 1-.259 4.839 3.05 3.05 0 0 1-.974 2.009 3.04 3.04 0 0 1-2.077.805c-1.813.109-2.842-1.039-3.243-2.6a18.5 18.5 0 0 1-.304-3.853c-.058-1.455-.058-2.912-.09-4.773-4.9.415-9.381.347-13.658 1.257-7.113 1.515-12.962 5.054-14.277 13.005-.605 3.674-.43 7.48-.627 11.568"/><path d="M40.58 123.022c-.95.042-2.776.195-4.601.188-3.957-.009-6.37-1.804-7.106-5.647a28.1 28.1 0 0 1 .576-13.424 5.42 5.42 0 0 1 3.892-3.921 45 45 0 0 1 15.936-1.679c2.877.2 5.102 1.807 5.761 4.83.998 4.57 1.266 9.188.025 13.762-1.041 3.836-3.505 5.732-7.483 5.879-2.037.074-4.08.012-7 .012m4.751-15.461h-8.406l.356 5.611h8.05zm47.234.913c0 1.1.015 1.749 0 2.397-.179 6.718-2.334 9.331-8.965 10.489-3.387.592-6.82.983-10.25 1.273-3.718.315-6.214-1.345-6.942-4.842-.923-4.442-1.463-8.949-.494-13.495.683-3.195 2.566-5.323 5.746-5.798a111 111 0 0 1 12.84-1.25c4.801-.153 6.889 1.797 7.638 6.517.263 1.701.313 3.437.427 4.709m-9.637-2.037h-9.271l.876 6.827c2.086-.204 3.79-.356 5.492-.54 3.082-.333 3.414-.714 3.268-3.859-.036-.732-.217-1.456-.368-2.428zm32.237 15.48a59 59 0 0 1-6.125-.037c-3.697-.39-5.852-2.347-6.074-5.972a77 77 0 0 1 .145-11.955c.389-4.065 2.227-5.723 6.297-6.044 3.963-.313 7.958-.402 11.934-.32 4.197.088 8.15 2.792 7.839 8.326-.152 2.693-.199 5.402-.545 8.072-.662 5.103-3.157 7.342-8.313 7.731-1.718.13-3.438.22-5.157.328zm-3.984-16.478c.129 2.762.227 4.857.323 6.876h7.535c.194-2.088.353-3.873.543-5.951zm3.651-18.563c-1.825.103-3.651.305-5.475.288-4.498-.043-6.841-2.174-7.065-6.634a103 103 0 0 1 0-10.343c.221-4.314 1.77-6.16 6.025-6.607 4.701-.498 9.427-.704 14.153-.615 4.387.089 6.724 2.56 6.701 7.048a61.3 61.3 0 0 1-1.121 10.894c-.7 3.739-2.944 5.477-6.775 5.746-2.136.152-4.296.028-6.446.028zm-4.532-8.747h9.221l.752-6.73-9.973-.44zm-46.97-2.718c.215-2.142.35-4.408.693-6.647.388-2.531 1.647-4.486 4.337-5.034 4.757-.97 9.54-1.792 14.427-1.21 4.266.508 6.58 2.329 7.172 6.596a34.7 34.7 0 0 1-.154 9.607c-.499 3.44-2.93 5.507-6.38 5.96-4.163.544-8.35.978-12.539 1.236-4.05.251-6.5-1.821-7.2-5.86-.256-1.48-.239-3.008-.357-4.648m17.484-4.268-9.658-.64.4 6.392 9.257-.933z"/></g><defs><clipPath id="a"><path fill="#fff" d="M.777 0h156v148h-156z"/></clipPath></defs></svg>
